src/assets/images/dollar-icon.svg

<svg viewBox="0.5 0 13 23" fill="none" xmlns="http://www.w3.org/2000/svg"><path d="M12.36 15.512c0-1.44-.456-2.52-1.488-3.264a8.926 8.926 0 00-1.416-.888 15.895 15.895 0 00-1.752-.72V5.12c1.176.216 1.992.912 2.448 2.088l1.872-1.056c-.84-1.848-2.4-2.952-4.32-3.216V.8H6.192v2.112c-1.296.12-2.376.6-3.24 1.416-.864.816-1.296 1.872-1.296 3.168 0 1.416.456 2.472 1.416 3.216.96.744 1.68 1.08 3.12 1.584v5.808c-1.752-.192-2.88-1.032-3.432-2.52L.84 16.688c.84 2.112 2.736 3.408 5.352 3.6V22.4h1.512v-2.136c1.368-.168 2.496-.672 3.36-1.512.864-.84 1.296-1.92 1.296-3.24zM3.864 7.496c0-1.32.912-2.208 2.328-2.4v4.968C4.56 9.392 3.864 8.72 3.864 7.496zm3.84 5.352c1.656.696 2.424 1.368 2.424 2.688s-.888 2.304-2.424 2.52v-5.208z" fill="#45A709"/></svg>

<svg width="19" height="23" viewBox="0 0 13 23" fill="none" xmlns="http://www.w3.org/2000/svg">
<path d="M12.36 15.512C12.36 14.072 11.904 12.992 10.872 12.248C10.368 11.864 9.888 11.576 9.456 11.36C9.024 11.144 8.448 10.904 7.704 10.64V5.12C8.88 5.336 9.696 6.032 10.152 7.208L12.024 6.152C11.184 4.304 9.624 3.2 7.704 2.936V0.8H6.192V2.912C4.896 3.032 3.816 3.512 2.952 4.328C2.088 5.144 1.656 6.2 1.656 7.496C1.656 8.912 2.112 9.968 3.072 10.712C4.032 11.456 4.752 11.792 6.192 12.296V18.104C4.44 17.912 3.312 17.072 2.76 15.584L0.84 16.688C1.68 18.8 3.576 20.096 6.192 20.288V22.4H7.704V20.264C9.072 20.096 10.2 19.592 11.064 18.752C11.928 17.912 12.36 16.832 12.36 15.512ZM3.864 7.496C3.864 6.176 4.776 5.288 6.192 5.096V10.064C4.56 9.392 3.864 8.72 3.864 7.496ZM7.704 12.848C9.36 13.544 10.128 14.216 10.128 15.536C10.128 16.856 9.24 17.84 7.704 18.056V12.848Z" fill="#45A709"/>
</svg>
